X: 306
P: Longways for as many as will
M: 3/2
L: 1/4
K: Bb
|:\
[|\
fb2a g2 | eg2f e2 | cf2e de | c3 B c2 |\
(d/e/)f (d/e/)f cf | (d/e/)f (d/e/)f cf | c2 (ef) (ed) | c4 B2 |]

